X: 021
T: Miss J. Cumming's Reel
C: attr. John French (1753-1803)
R: reel
B: "John French Collection", John French ed. p.2 #1
S: http://www.heallan.com/french.asp
Z: 2012 John Chambers <jc:trillian.mit.edu>
M: C
L: 1/8
K: D
f | d2(AG) FGAF | Ee-ed cABc | d2(AG) FGAF | Dd-de fdd :|
f | d2(fd) (f/g/a)(fd) | d2(fd) ce-ef | d2(fd) (f/g/a)(fd) ABde fd-d ||
f | d2(fd) (f/g/a)(fd) | d2(fd) ce-ef | dAFA GBAG | FAde fd-d |]

%%sep 2 1 500
%%sep 1 1 500

